!!! OTL: Literature92
!!! Chapter: 5
!!! Section: III
!!! Page: 366
!!! Mode: 
!!! Encoder: DJB
**kern
*staff1
*I"Piano
=1-
*clefG2
*k[b-e-a-d-g-]
*b-:
*M2/4
8r
8dd-\
8cc\L
8b-\J
=2
8an/L
8b-/J
8ff\L
8ff\J
=3
8cc\L
8ee-\J
8dd-\L
8cc\J
=4
8an/L
8b-/J
8cc\L
8cc\J
=5
8f/L
8f/J
8gn/L
8an/J
=6
8b-\L
8cc\J
8dd-\L
8ff\J
=7
8ee-\L
8dd-\J
8cc\L
8b-\J
=8
8an/L
8f/J
8b-/L
8gn/J
=9
8an\L
8dd-\J
8cc\L
8b-\J
=10
8an/L
8b-/J
8ff\L
8ff\J
=11
!!linebreak:original
8cc\L
8ee-\J
8dd-\L
8cc\J
=12
8an/L
8b-/J
8cc\L
8cc\J
=13
8f/L
8f/J
8gn/L
8an/J
=14
8cc\L
8b-\J
8ff\L
8ff\J
=15
8ff\L
8ee-\J
8dd-\L
8cc\J
=16
8b-/L
8a-/J
8ee-\L
8ee-\J
=17
8ee-\L
8dd-\J
8cc\L
8b-\J
=18
8a-/L
8g-/J
8dd-\L
8dd-\J
=19
8dd-\L
8cc\J
8dd-\L
8ee-\J
=20
8ff\L
8ee-\J
8dd-\L
8cc\J
=21
8b-\
8r
4r
==
*-
